svg/Octicons/device-camera.svg

<svg xmlns="http://www.w3.org/2000/svg" viewBox="0 0 1024 1024"><path d="m512 384c-70.69 0-128 57.31-128 128s57.31 128 128 128c5.713 0 11.337-.38 16.852-1.105-46.34-7.06-81.85-47.08-81.85-95.39 0-53.3 43.2-96.5 96.5-96.5 48.31 0 88.34 35.507 95.39 81.85.726-5.515 1.105-11.139 1.105-16.852 0-70.69-57.31-128-128-128m384-128h-128l-128-128h-256l-128 128h-128c-35.35 0-64 28.652-64 64v448c0 35.35 28.652 64 64 64h768c35.35 0 64-28.653 64-64v-448c0-35.35-28.653-64-64-64m-480-64h192l64 64h-320l64-64m-255.86 576c-17.752 0-32.14-14.391-32.14-32.14v-287.86h64v-64h-64v-31.857c0-17.752 14.391-32.14 32.14-32.14h182.53c-3.98 3.518-7.881 7.174-11.688 10.98-99.97 99.98-99.97 262.06 0 362.04l74.98 74.98h-245.82m351.86-64c-106.04 0-192-85.961-192-192s85.961-192 192-192 192 85.961 192 192-85.961 192-192 192m320-224l-150.67-160h150.67v160"/></svg>

<svg height="1024" width="1024" xmlns="http://www.w3.org/2000/svg">
  <path d="M512 384.001c-70.691 0-127.999 57.308-127.999 127.999S441.309 639.999 512 639.999c5.713 0 11.337-0.38 16.852-1.105-46.344-7.058-81.851-47.079-81.851-95.394 0-53.295 43.204-96.499 96.499-96.499 48.314 0 88.336 35.507 95.394 81.851 0.726-5.515 1.105-11.139 1.105-16.852C639.999 441.309 582.691 384.001 512 384.001zM896 256H767.999L640 128H384L255.999 256H128c-35.348 0-64 28.652-64 64v448c0 35.347 28.652 64 64 64h768c35.347 0 64-28.653 64-64V320C960 284.65200000000004 931.347 256 896 256zM416 192h192l64 64H352L416 192zM160.143 768C142.391 768 128 753.609 128 735.857V448h64v-64h-64v-31.857C128 334.391 142.391 320 160.143 320h182.526c-3.98 3.518-7.881 7.174-11.688 10.98-99.974 99.975-99.974 262.064 0 362.039l74.98 74.98H160.143zM512 703.999c-106.038 0-191.999-85.961-191.999-191.999S405.962 320.001 512 320.001 703.999 405.962 703.999 512 618.038 703.999 512 703.999zM832 480L681.327 320H832V480z" />
</svg>
